img/star-active.svg

<svg width="21" height="19" viewBox="0 0 21 19" fill="none" xmlns="http://www.w3.org/2000/svg">
<path d="M9.54894 0.927049C9.8483 0.0057385 11.1517 0.0057404 11.4511 0.927051L13.0819 5.9463C13.2158 6.35833 13.5997 6.63729 14.033 6.63729H19.3105C20.2792 6.63729 20.682 7.8769 19.8983 8.4463L15.6287 11.5484C15.2782 11.803 15.1315 12.2544 15.2654 12.6664L16.8963 17.6857C17.1956 18.607 16.1411 19.3731 15.3574 18.8037L11.0878 15.7016C10.7373 15.447 10.2627 15.447 9.91221 15.7016L5.64258 18.8037C4.85887 19.3731 3.80439 18.607 4.10374 17.6857L5.7346 12.6664C5.86847 12.2544 5.72181 11.803 5.37132 11.5484L1.10169 8.4463C0.317977 7.8769 0.720754 6.63729 1.68948 6.63729H6.96703C7.40026 6.63729 7.78421 6.35833 7.91809 5.9463L9.54894 0.927049Z" fill="#FFEB6D"/>
</svg>

<svg width="21" height="19" fill="none" xmlns="http://www.w3.org/2000/svg"><path d="M9.549.927c.3-.921 1.603-.921 1.902 0l1.63 5.02a1 1 0 00.952.69h5.278c.968 0 1.371 1.24.587 1.81l-4.27 3.101a1 1 0 00-.363 1.118l1.631 5.02c.3.921-.755 1.687-1.539 1.118l-4.27-3.102a1 1 0 00-1.175 0l-4.27 3.102c-.783.57-1.838-.197-1.538-1.118l1.63-5.02a1 1 0 00-.363-1.118l-4.27-3.102c-.783-.57-.38-1.809.588-1.809h5.278a1 1 0 00.951-.69l1.63-5.02z" fill="#FFEB6D"/></svg>
